X: 197
M: 2/4
L: 1/8
K: F
d/-d/ | c> A A F | G> F G A | (F> D) (D C) | F3 |]
"Refrain."d | (c>A) (AF) | G> F G d | (c>A) (Ac) | d3
d | c> A A F | G> F G A | (F>D) (DC) | F3 |]


